X:3462
L:1/8
Q:1/4=120
M:2/2
K:G
"^Moderate" (Bc) | d2 B2 [B,G]2 [B,G]2 | !slide![DD]3 [DD] [DD]EDC | B,2 D2 [G,G]2 [DB]2 | 
{c} d3 d d2 (AB/c/ | d)BAG F2 [DA]2 |{D} [FA]3 [FA] [FA]E[FA]E | D2 D2{F} (E D3) | [B,D]6 ([DB]c | 
 [Dd]2) [DB]2 [G,G]2 [G,G]2 | !slide![DD]3 [DD] [DD]EDC | [B,D]2 DD [G,G]2 [DB]B |{c} d3 d- d4 | 
 [ce]3 c c2 ef | gfga geBc | d2 d2 ([D-c]([D-B]) [DA]2) | [GB]6 || [DA]2 | b4 !slide!b4 | b6 ba | 
 b2 ba (gf) e2 | d3 (c (d) [df]3) | !slide!a4 a4 | a6 fg | a2 a2{f} (gf) e2 | d6 A2 | b3 _b- b4 | 
 !slide!b6 ba | b2 ba (gf) e2 | [df]3 (c d)c ([de-]2 | [ee]3) ([de-] [ee]2) f2 | g4 B3 d | 
 e2 d2 [Dc][DB] [DA]2 | [G,G]6 ||

